X:374
%%etbk:tnset id:517,pos:1,rep:3x,ant:
%%etbk:wsite http://www.thesession.org/tunes/display/1398
%%etbk:pldat 2016-08-21T11:28,2016-08-04T18:25,2016-07-21T18:58,2016-07-15T14:52,2016-07-07T15:57,2016-06-12T13:14,2016-05-25T15:40,2014-12-18T18:17,2014-02-10T18:42,2014-02-07T15:37,2014-02-06T18:03,2013-12-11T16:33,2013-11-27T18:55,2013-10-08T16:37,2013-10-04T17:28,2013-08-28T16:51,2013-05-06T18:27
T: Star Above The Garter, The
Z: Piano Box Version by Martin Fleischmann
H: Created 2013-02-19 /  Last Modified 2013-02-19
M: 12/8
L: 1/8
R: slide
K: Gmaj
|: "G"!5!d2!3!B {c}BA!1!G "D"!3!A!2!A!3!A !3!ABA | "C"!2!G2!1!E !5!c2!4!B "D"!3!BAG !2!ABc |
"G"!5!d2!2!B {c}BA!1!G "D"!3!A!2!A!3!A !3!ABA | "C"!2!G2!1!E !5!c2!1!E "D"!1!D !3!(3D!2!D!1!D !1!D3:|
|: "D"!3!d2!4!e !3!f2!5!a "G"!4!g2e !1!d2!3!B | !1!G2!3!B c2B "D"{c}!3!BAG !2!AB!4!c |
"D"!3!d2!4!e !3!f2!5!a "G"!4!g2e !1!d2!3!B | !1!G2B !4!c2!1!E "D"!1!D !3!(3D!2!D!1!D !1!D3:|


